icons/icn_carro.svg

<svg width="24" xmlns="http://www.w3.org/2000/svg" height="24" id="screenshot-c771b8a1-be82-8080-8006-984b4511dced" viewBox="0 0 24 24" xmlns:xlink="http://www.w3.org/1999/xlink" fill="none" version="1.1"><g id="shape-c771b8a1-be82-8080-8006-984b4511dced"><g class="frame-container-wrapper"><g class="frame-container-blur"><g class="frame-container-shadows"><g fill="none"><g class="fills" id="fills-c771b8a1-be82-8080-8006-984b4511dced"><rect rx="0" ry="0" x="0" y="0" width="24" height="24.000000000000455" transform="matrix(1, 0, 0, 1, 0, 0)" class="frame-background"/></g><g class="frame-children"><g id="shape-c771b8a1-be82-8080-8006-984b3589d4f8" width="24" height="24" version="1.1" rx="0" ry="0" style="fill: rgb(0, 0, 0);"><g id="shape-c771b8a1-be82-8080-8006-984b358e6570" style="opacity: 1;"><g class="fills" id="fills-c771b8a1-be82-8080-8006-984b358e6570"><path d="M13.009814262390137,20.35400390625L13.009814262390137,20.35400390625L13.009814262390137,20.35400390625Z" style="fill: none; fill-opacity: 1; stroke-linejoin: round; stroke-dasharray: none; display: inline; stroke-linecap: round;"/></g><g id="strokes-ff2223d1-6008-80ec-8007-29cad8f9a5e5-c771b8a1-be82-8080-8006-984b358e6570" class="strokes" style="fill: none; fill-opacity: 1; stroke-linejoin: round; stroke-dasharray: none; display: inline; stroke-linecap: round;"><g class="stroke-shape"><path d="M13.009814262390137,20.35400390625L13.009814262390137,20.35400390625L13.009814262390137,20.35400390625Z" style="fill: none; stroke-width: 0.388056; stroke: rgb(0, 0, 0); stroke-opacity: 1;"/></g></g></g><g id="shape-c771b8a1-be82-8080-8006-984b358ea75e" style="opacity: 1;"><g class="fills" id="fills-c771b8a1-be82-8080-8006-984b358ea75e"><path d="M2.074267625808716,2.547119140625C1.8796875476837158,2.5438232421875,1.6914551258087158,2.6181640625,1.5510742664337158,2.7542724609375C1.4119141101837158,2.889892578125,1.3315918445587158,3.0758056640625,1.3289062976837158,3.2705078125C1.3250000476837158,3.4656982421875,1.3999512195587158,3.6533203125,1.5354492664337158,3.7935791015625C1.6711914539337158,3.933349609375,1.8574707508087158,4.01318359375,2.052294969558716,4.0159912109375L4.753954887390137,4.067626953125L6.274706840515137,17.081298828125C6.317187309265137,17.449462890625,6.627245903015137,17.72802734375,6.998095512390137,17.7308349609375L19.001026153564453,17.7308349609375C19.346973419189453,17.7298583984375,19.646045684814453,17.4866943359375,19.717090606689453,17.147705078125L21.828418731689453,6.8504638671875C21.871631622314453,6.635498046875,21.816211700439453,6.4122314453125,21.677783966064453,6.241943359375C21.539600372314453,6.0721435546875,21.331836700439453,5.9730224609375,21.112354278564453,5.9720458984375L6.555224418640137,5.9720458984375C6.522021293640137,5.9844970703125,6.489550590515137,5.999267578125,6.459277153015137,6.016357421875L6.134325981140137,3.26318359375C6.092822074890137,2.9005126953125,5.791064262390137,2.6236572265625,5.425829887390137,2.613525390625ZM6.621630668640137,7.4410400390625L20.211719512939453,7.4410400390625L18.403125762939453,16.269287109375L7.655077934265137,16.269287109375Z" style="display: inline; stroke-linecap: round; stroke-linejoin: round; fill: rgb(0, 0, 0); fill-opacity: 1;"/></g></g><g id="shape-c771b8a1-be82-8080-8006-984b358edc0c" style="opacity: 1;"><g class="fills" id="fills-c771b8a1-be82-8080-8006-984b358edc0c"><ellipse cx="7.498559059656145" cy="20.4890030176374" rx="1.5080267463717973" ry="1.5079524176131827" transform="matrix(1, 0, 0, 1, 0, 0)" style="stroke-opacity: 1; stroke: none; stroke-width: 0.40118; stroke-linejoin: round; stroke-dasharray: none; display: inline; stroke-linecap: round; fill: rgb(0, 0, 0); fill-opacity: 1;"/></g></g><g id="shape-c771b8a1-be82-8080-8006-984b358edc0d" style="opacity: 1;"><g class="fills" id="fills-c771b8a1-be82-8080-8006-984b358edc0d"><ellipse cx="17.499157482967803" cy="20.4890030176374" rx="1.5080267463727068" ry="1.5079524176131827" transform="matrix(1, 0, 0, 1, 0, 0)" style="stroke-opacity: 1; stroke: none; stroke-width: 0.40118; stroke-linejoin: round; stroke-dasharray: none; display: inline; stroke-linecap: round; fill: rgb(0, 0, 0); fill-opacity: 1;"/></g></g></g></g></g></g></g></g></g></svg>

<svg fill="none" viewBox="0 0 24 24"><g class="frame-container-wrapper"><g class="frame-container-blur"><g class="frame-container-shadows"><g class="fills"><rect width="24" height="24" class="frame-background" rx="0" ry="0"/></g><g fill="#000" class="frame-children"><path fill="none" d="M13.0098 20.354Z" class="fills"/><g fill="none" stroke-linecap="round" stroke-linejoin="round" class="strokes"><path stroke="#000" stroke-width=".3881" d="M13.0098 20.354h0Z" class="stroke-shape"/></g><path d="M2.0743 2.5471a.7337.7337 0 0 0-.5232.2072.7359.7359 0 0 0-.2222.5162.7317.7317 0 0 0 .2065.523.7355.7355 0 0 0 .5169.2225l2.7017.0516 1.5207 13.0137a.7335.7335 0 0 0 .7234.6495h12.003a.7341.7341 0 0 0 .716-.583l2.1113-10.2973a.7335.7335 0 0 0-.716-.8784H6.5552a.6855.6855 0 0 0-.096.0443l-.3249-2.7532a.7333.7333 0 0 0-.7085-.6497Zm4.5473 4.894h13.5901l-1.8086 8.8282H7.6551Z" class="fills"/><circle cx="7.4986" cy="20.489" r="1.508" class="fills"/><circle cx="17.4992" cy="20.489" r="1.508" class="fills"/></g></g></g></g></svg>
